public/assets/standards/sci/resource-if-icon.svg

<svg width="65" height="65" viewBox="0 0 65 65" fill="none" xmlns="http://www.w3.org/2000/svg">
<path d="M47.1939 10.6992C47.1939 10.6992 41.0541 20.4985 33.4506 20.4985C25.847 20.4985 19.7072 10.6992 19.7072 10.6992C19.7072 10.6992 25.847 0.900002 33.4506 0.900002C41.0541 0.900002 47.1939 10.6992 47.1939 10.6992Z" fill="#006D68"/>
<path d="M33.4506 14.0741C35.6288 14.0741 37.3947 12.3083 37.3947 10.13C37.3947 7.95173 35.6288 6.1859 33.4506 6.1859C31.2723 6.1859 29.5065 7.95173 29.5065 10.13C29.5065 12.3083 31.2723 14.0741 33.4506 14.0741Z" fill="#ACCA53"/>
<path d="M23.4887 25.947C21.7403 24.7679 19.6666 24.2393 17.5522 24.4426C15.0313 24.6865 12.8356 25.947 11.2905 27.9394C8.52554 31.5175 8.89149 36.6408 12.1037 39.853C12.2257 39.975 12.307 40.0563 12.429 40.1783C14.1774 41.7234 16.4137 42.4959 18.7314 42.3333C19.1787 42.2926 19.5039 42.6179 19.5446 43.0245C19.5446 43.2278 19.5039 43.4311 19.3413 43.5938C19.2193 43.7564 19.016 43.8377 18.8127 43.8377C18.5687 43.8377 18.3248 43.8784 18.1215 43.8784C15.6412 43.8784 13.2422 42.9839 11.4125 41.3168C11.2905 41.1948 11.1685 41.0728 11.0465 40.9508C7.26506 37.21 6.85845 31.2329 10.1113 27.0449C11.9004 24.6865 14.5027 23.2634 17.4302 22.9788C18.5281 22.8568 19.6259 22.9381 20.6831 23.1821L11.9004 14.3994C0.352734 25.947 0.352734 44.6916 11.9004 56.2393L32.8 35.3396L23.4887 25.947ZM18.772 38.0233C16.2511 38.0233 14.1774 35.9496 14.1774 33.4286C14.1774 30.9076 16.2104 28.8746 18.772 28.8746C21.3337 28.8746 23.3667 30.9483 23.3667 33.4693C23.3667 35.9902 21.293 38.0233 18.772 38.0233Z" fill="#3C3C3C"/>
<path d="M53.7403 14.3994C53.7403 14.3994 48.8203 19.4006 44.9169 23.3447C45.5675 23.1821 46.2587 23.0601 46.9499 23.0194C49.6742 22.8568 52.2765 23.7513 54.3095 25.5811C54.4315 25.7031 54.5535 25.825 54.6755 25.947C58.4569 29.6878 58.8635 35.6649 55.6107 39.853C53.6183 42.4553 50.4874 44.0004 47.2346 44.0004C47.1126 44.0004 46.9906 44.0004 46.9093 44.0004C46.706 44.0004 46.5027 43.9191 46.3807 43.7564C46.2587 43.5938 46.1774 43.4311 46.1774 43.2278C46.1774 43.0245 46.2587 42.8212 46.4214 42.6992C46.584 42.5773 46.7466 42.4959 46.9499 42.4959C49.8369 42.5773 52.6424 41.2761 54.4315 38.9585C57.1964 35.3803 56.8305 30.2571 53.6183 27.0449C53.4963 26.9229 53.415 26.8416 53.293 26.7196C51.5853 25.1745 49.3896 24.4019 47.0719 24.5646C45.0795 24.6865 43.0872 25.4184 41.5827 26.7196C41.3388 26.9229 40.5662 27.6548 40.2409 27.9394C40.1189 28.0614 39.997 28.1834 39.875 28.3053L11.941 56.2393C23.4887 67.7869 42.2333 67.7869 53.7809 56.2393C65.3286 44.6916 65.2879 25.947 53.7403 14.3994ZM42.3553 34.2418C41.8267 31.1109 44.5103 28.4273 47.6412 28.9559C49.5522 29.2812 51.0973 30.7856 51.382 32.6967C51.9106 35.8276 49.2269 38.5112 46.0961 37.9826C44.2257 37.6573 42.6806 36.1122 42.3553 34.2418Z" fill="#006D68"/>
<path fill-rule="evenodd" clip-rule="evenodd" d="M38.1672 44.9356L32.8407 52.2545L27.5141 44.9356H38.1672Z" fill="#ACCA53"/>
</svg>

<svg xmlns="http://www.w3.org/2000/svg" width="65" height="65" fill="none" viewBox="0 0 65 65"><path fill="#006d68" d="M47.194 10.7s-6.14 9.799-13.743 9.799-13.744-9.8-13.744-9.8S25.847.9 33.451.9c7.603 0 13.743 9.8 13.743 9.8"/><path fill="#acca53" d="M33.45 14.074a3.944 3.944 0 1 0 0-7.888 3.944 3.944 0 0 0 0 7.888"/><path fill="#3c3c3c" d="M23.489 25.947a9 9 0 0 0-5.937-1.504c-2.52.243-4.716 1.504-6.261 3.496-2.765 3.578-2.4 8.702.813 11.914l.325.325c1.748 1.545 3.985 2.318 6.302 2.155.448-.04.773.285.814.692 0 .203-.041.406-.204.569a.66.66 0 0 1-.528.244c-.244 0-.488.04-.691.04-2.48 0-4.88-.894-6.71-2.561l-.366-.366c-3.78-3.741-4.188-9.718-.935-13.906 1.79-2.359 4.392-3.782 7.32-4.066a9.7 9.7 0 0 1 3.252.203L11.9 14.4C.353 25.947.353 44.692 11.9 56.24l20.9-20.9zm-4.717 12.076c-2.52 0-4.595-2.073-4.595-4.594s2.033-4.554 4.595-4.554a4.59 4.59 0 0 1 4.595 4.594c0 2.521-2.074 4.554-4.595 4.554"/><path fill="#006d68" d="M53.74 14.4s-4.92 5-8.823 8.945c.65-.163 1.342-.285 2.033-.326 2.724-.162 5.326.732 7.36 2.562l.365.366c3.782 3.74 4.189 9.718.936 13.906A10.61 10.61 0 0 1 47.235 44h-.326a.66.66 0 0 1-.528-.244c-.122-.162-.204-.325-.204-.528s.082-.407.244-.529c.163-.122.326-.203.529-.203a9.15 9.15 0 0 0 7.481-3.538c2.765-3.578 2.4-8.7-.813-11.913l-.325-.325a8.3 8.3 0 0 0-6.221-2.155c-1.992.121-3.985.853-5.49 2.155-.243.203-1.016.935-1.341 1.22l-.366.365L11.941 56.24c11.548 11.548 30.292 11.548 41.84 0s11.507-30.292-.04-41.84M42.355 34.241a4.57 4.57 0 0 1 5.286-5.286c1.911.325 3.456 1.83 3.741 3.74a4.57 4.57 0 0 1-5.286 5.287c-1.87-.326-3.415-1.87-3.74-3.741"/><path fill="#acca53" fill-rule="evenodd" d="m38.167 44.936-5.326 7.319-5.327-7.32z" clip-rule="evenodd"/></svg>
